www/assets/icons/grid_view.svg

<svg xmlns="http://www.w3.org/2000/svg" width="24" height="24" viewBox="0 0 24 24" fill='currentColor'><path fill-rule="evenodd" d="M3 3v8h8V3zm6 6H5V5h4zm-6 4v8h8v-8zm6 6H5v-4h4zm4-16v8h8V3zm6 6h-4V5h4zm-6 4v8h8v-8zm6 6h-4v-4h4z" clip-rule="evenodd"/></svg>

<svg width="24" height="24" viewBox="0 0 24 24" xmlns="http://www.w3.org/2000/svg" fill='currentColor'><path fill-rule="evenodd" clip-rule="evenodd" d="M3 3V11H11V3H3ZM9 9H5V5H9V9ZM3 13V21H11V13H3ZM9 19H5V15H9V19ZM13 3V11H21V3H13ZM19 9H15V5H19V9ZM13 13V21H21V13H13ZM19 19H15V15H19V19Z"/></svg>
